X: 12
T: Vangelio
R: Kalamatianos
M: 7/8
L: 1/8
K: G
|: "G"G2A B2 cB | A2G B2 D2 | G2A B2 cB | A2G G2 z D :|
|: "G"B2c "C"e2 "G"d2 | B2c "C"e2 "G"d2 | G2A B2 cB | "D"A2G "G"B2 G2 :|


